img/inst.svg

<svg width="16" height="16" viewBox="0 0 16 16" fill="none" xmlns="http://www.w3.org/2000/svg">
<path fill-rule="evenodd" clip-rule="evenodd" d="M11.6836 3.6988C11.6836 4.22936 12.1146 4.6595 12.6464 4.6595C13.1782 4.6595 13.6092 4.22936 13.6092 3.6988C13.6092 3.16821 13.1782 2.73808 12.6464 2.73808C12.1146 2.73808 11.6836 3.16821 11.6836 3.6988ZM5.68872 7.97232C5.68872 6.49845 6.88619 5.30367 8.36331 5.30367C9.84042 5.30367 11.0379 6.49845 11.0379 7.97232C11.0379 9.44616 9.84042 10.6409 8.36331 10.6409C6.88619 10.6409 5.68872 9.44616 5.68872 7.97232ZM8.36331 12.0834C6.08774 12.0834 4.24304 10.2428 4.24304 7.97225C4.24304 5.70173 6.08774 3.86112 8.36331 3.86112C10.6389 3.86112 12.4836 5.70173 12.4836 7.97225C12.4836 10.2428 10.6389 12.0834 8.36331 12.0834ZM14.8769 1.49725C14.5541 1.17437 14.2467 0.974413 13.816 0.807049C13.4909 0.680667 13.0023 0.530375 12.1027 0.489326C11.1297 0.444942 10.8379 0.435547 8.37422 0.435547C5.91052 0.435547 5.6187 0.444942 4.64573 0.489326C3.74613 0.530375 3.25758 0.680667 2.93245 0.807049C2.50174 0.974413 2.19439 1.17437 1.87152 1.49725C1.54864 1.82013 1.34868 2.12751 1.18128 2.55818C1.05493 2.88331 0.904643 3.3719 0.863593 4.27149C0.81921 5.24443 0.809814 5.53626 0.809814 7.99995C0.809814 10.4637 0.81921 10.7555 0.863593 11.7284C0.904643 12.628 1.05493 13.1166 1.18128 13.4417C1.34868 13.8724 1.54864 14.1798 1.87152 14.5027C2.19439 14.8256 2.50174 15.0255 2.93245 15.1929C3.25758 15.3192 3.74613 15.4696 4.64576 15.5106C5.61856 15.555 5.91035 15.5644 8.37422 15.5644C10.8381 15.5644 11.1299 15.555 12.1027 15.5106C13.0023 15.4696 13.4909 15.3192 13.816 15.1929C14.2467 15.0255 14.5541 14.8256 14.8769 14.5026C15.1998 14.1798 15.3998 13.8724 15.5671 13.4417C15.6935 13.1166 15.8438 12.628 15.8849 11.7284C15.9293 10.7555 15.9386 10.4637 15.9386 7.99995C15.9386 5.53626 15.9293 5.24443 15.8849 4.27149C15.8438 3.3719 15.6935 2.88331 15.5671 2.55818C15.3998 2.12751 15.1998 1.82013 14.8769 1.49725Z" fill="#8D8D8D"/>
</svg>

<svg width="16" height="16" viewBox="0 0 16 16" fill="none" xmlns="http://www.w3.org/2000/svg"><path fill-rule="evenodd" clip-rule="evenodd" d="M11.68 3.7a.96.96 0 1 0 1.93 0 .96.96 0 0 0-1.93 0Zm-6 4.27a2.67 2.67 0 1 1 5.35 0 2.67 2.67 0 0 1-5.34 0Zm2.68 4.11a4.12 4.12 0 1 1 0-8.23 4.12 4.12 0 0 1 0 8.23ZM14.88 1.5a2.86 2.86 0 0 0-1.06-.7A5.1 5.1 0 0 0 12.1.5C11.13.44 10.84.44 8.37.44c-2.46 0-2.75 0-3.72.05-.9.04-1.4.2-1.72.32-.43.16-.74.36-1.06.69-.32.32-.52.63-.69 1.06a5.1 5.1 0 0 0-.32 1.71C.82 5.24.81 5.54.81 8s0 2.76.05 3.73c.04.9.2 1.39.32 1.71.17.43.37.74.7 1.06.31.33.62.53 1.05.7.33.12.82.27 1.72.31.97.04 1.26.05 3.72.05 2.47 0 2.76 0 3.73-.05a5.1 5.1 0 0 0 1.72-.32c.43-.16.73-.36 1.06-.69.32-.32.52-.63.69-1.06.12-.32.27-.81.31-1.71.05-.97.06-1.27.06-3.73s-.01-2.76-.06-3.73a5.1 5.1 0 0 0-.31-1.71 2.86 2.86 0 0 0-.7-1.06Z" fill="#8D8D8D"/></svg>
